icons/1_Primary/OMGSERV.svg

<svg xmlns="http://www.w3.org/2000/svg" width="1024" height="1024" fill="none">
   <g clip-path="url(#a)">
      <path fill="#F8C18C" d="M512 1024c282.77 0 512-229.23 512-512S794.77 0 512 0 0 229.23 0 512s229.23 512 512 512Z"/>
      <path fill="#fff" d="M378 529.26h106v25.14h-77.08v40.48h72.68v22h-72.68v44.5H484V686H378.08L378 529.26Zm-113.27 43.53c-2.33 44 95.44-3.13 95.44 54.23 0 3.89-.08 8.12-.08 12.9 0 44.95-20.69 45.56-46.73 45.56-26.04 0-53.36.15-53.36.15 0 5.65 2.67 13.73 1.6 14.64-1.07.91-27.6-18.68-27.6-28.27 0-10.39 26.35-27.07 27.24-26.38.89.69-.75 7.37-1.52 18.37 7.12 0 37.34.55 53.34.15 17.47-.44 18.17-12 18.17-21.51 0-49.56-97.36 10-96.58-65.62 0-30.47 1.44-49 61.77-49 16.38 0 17.59 3 30.57 3s17.5-5.77 17.5-11.6a54.909 54.909 0 0 0-1.06-10.63c-4.08.81-26.93 2.53-32.3 2.42-9.35-.19-43.78-1.79-57.68-13.74-13.9-11.95-14.87-32.62-15.57-54.59 0-42.61 2.12-74.94 12.06-87.71C259.88 342.39 271.8 341 271.8 341s-14.49-30-11.9-32 33.16 27.54 33.16 27.54c16-1.44 26.2-.07 35.47.68 0 0-8.73-31.93-6.77-33.47a.47.47 0 0 1 .34-.09c4.28.34 31.94 38.08 31.94 38.08s11.32 2.87 16.49 6.33c5.17 3.46 7.57 6.16 12.25 15.92s4.89 22.12 5.6 51.22c.42 21.88 2.91 55.07-10.27 74.45-7.92 11.79 0 57.63-28.54 64.44-28.54 6.81-33.34-2.19-50.71-2.19-17.37 0-32.98-.83-34.13 20.88Zm59.69-202.2c0 3.34 2.1 6 4.69 6 2.59 0 4.69-2.71 4.69-6s-2.1-6-4.69-6c-2.59 0-4.69 2.65-4.69 5.99v.01Zm-48 0c0 3.34 2.1 6 4.69 6 2.59 0 4.69-2.71 4.69-6s-2.1-6-4.69-6c-2.59 0-4.72 2.65-4.72 5.99l.03.01Zm77.47 79.18s-13.08-16.39-15.67-16.39-8.47 7.34-12.1 7.34c-3.63 0-10.06-8.1-10.06-8.1s6.85 2.42 10.21 2.22c3.36-.2 9.09-13.88 12.3-13.88 3.21 0 11.76 8.93 16.42 10.9.12-8.22-2.07-47.69-2.07-47.69h-78.65c-2.59 8.47-3.27 36.88-3.27 44.83 0 5.16-.95 38.9 8 46.63 8.95 7.73 23.54 7.28 32.5 7.28 17.67-.02 42.36 2.17 42.36-33.15l.03.01Zm227.29-83v144.4h31.48V335.94h-52L512.26 469l-48.38-133.06h-52v175.27h31.48v-144.4l56 144.4h25.84l55.98-144.44Zm133.49 75.52h44.27v16.26c0 15.13-7.21 25.81-40.83 26-33.62.19-45.6-7.09-45.6-28.27v-59.9c0-31.17 12.61-34.08 47.47-34.08s37.47 12.92 37.47 26.49h31.66c0-47.13-19.35-52.91-71.4-52.91-52 0-77.77 13.56-77.87 55.44V456c0 42.82 28.81 55.22 84.41 55.22 55.6 0 65.75-16.84 65.75-49.22v-43.4h-75.36l.03 23.69Zm.55 219.71L673 529.26h-29.91L692.73 686h45l49.64-156.71h-29.96L715.22 662Zm-109.79-41.24c22.24 0 26.63 16.45 26.63 25.25v40H603v-33.36c0-9-6-19.17-19.17-19.17H536V686h-28.65V529.26h86.95c25 0 38.94 10.77 38.94 47.26 0 36.49-8.93 39.18-27.81 44.24Zm-17.21-66.36h-52.1v54.19h48.44c18.58 0 18.64-13.71 19.08-26.71.44-13-.77-27.49-15.42-27.49v.01Z"/>
   </g>
   <defs>
      <clipPath id="a">
         <path fill="#fff" d="M0 0h1024v1024H0z"/>
      </clipPath>
   </defs>
</svg>

<svg width="1024" height="1024" viewBox="0 0 1024 1024" fill="none" xmlns="http://www.w3.org/2000/svg">
<g clip-path="url(#clip0_2_3012)">
<path d="M512 1024C794.77 1024 1024 794.77 1024 512C1024 229.23 794.77 0 512 0C229.23 0 0 229.23 0 512C0 794.77 229.23 1024 512 1024Z" fill="#F8C18C"/>
<path d="M378 529.26H484V554.4H406.92V594.88H479.6V616.88H406.92V661.38H484V686H378.08L378 529.26ZM264.73 572.79C262.4 616.79 360.17 569.66 360.17 627.02C360.17 630.91 360.09 635.14 360.09 639.92C360.09 684.87 339.4 685.48 313.36 685.48C287.32 685.48 260 685.63 260 685.63C260 691.28 262.67 699.36 261.6 700.27C260.53 701.18 234 681.59 234 672C234 661.61 260.35 644.93 261.24 645.62C262.13 646.31 260.49 652.99 259.72 663.99C266.84 663.99 297.06 664.54 313.06 664.14C330.53 663.7 331.23 652.14 331.23 642.63C331.23 593.07 233.87 652.63 234.65 577.01C234.65 546.54 236.09 528.01 296.42 528.01C312.8 528.01 314.01 531.01 326.99 531.01C339.97 531.01 344.49 525.24 344.49 519.41C344.483 515.841 344.128 512.28 343.43 508.78C339.35 509.59 316.5 511.31 311.13 511.2C301.78 511.01 267.35 509.41 253.45 497.46C239.55 485.51 238.58 464.84 237.88 442.87C237.88 400.26 240 367.93 249.94 355.16C259.88 342.39 271.8 341 271.8 341C271.8 341 257.31 311 259.9 309C262.49 307 293.06 336.54 293.06 336.54C309.06 335.1 319.26 336.47 328.53 337.22C328.53 337.22 319.8 305.29 321.76 303.75C321.857 303.677 321.979 303.645 322.1 303.66C326.38 304 354.04 341.74 354.04 341.74C354.04 341.74 365.36 344.61 370.53 348.07C375.7 351.53 378.1 354.23 382.78 363.99C387.46 373.75 387.67 386.11 388.38 415.21C388.8 437.09 391.29 470.28 378.11 489.66C370.19 501.45 378.11 547.29 349.57 554.1C321.03 560.91 316.23 551.91 298.86 551.91C281.49 551.91 265.88 551.08 264.73 572.79ZM324.42 370.59C324.42 373.93 326.52 376.59 329.11 376.59C331.7 376.59 333.8 373.88 333.8 370.59C333.8 367.3 331.7 364.59 329.11 364.59C326.52 364.59 324.42 367.24 324.42 370.58V370.59ZM276.42 370.59C276.42 373.93 278.52 376.59 281.11 376.59C283.7 376.59 285.8 373.88 285.8 370.59C285.8 367.3 283.7 364.59 281.11 364.59C278.52 364.59 276.39 367.24 276.39 370.58L276.42 370.59ZM353.89 449.77C353.89 449.77 340.81 433.38 338.22 433.38C335.63 433.38 329.75 440.72 326.12 440.72C322.49 440.72 316.06 432.62 316.06 432.62C316.06 432.62 322.91 435.04 326.27 434.84C329.63 434.64 335.36 420.96 338.57 420.96C341.78 420.96 350.33 429.89 354.99 431.86C355.11 423.64 352.92 384.17 352.92 384.17H274.27C271.68 392.64 271 421.05 271 429C271 434.16 270.05 467.9 279 475.63C287.95 483.36 302.54 482.91 311.5 482.91C329.17 482.89 353.86 485.08 353.86 449.76L353.89 449.77ZM581.18 366.77V511.17H612.66V335.94H560.66L512.26 469L463.88 335.94H411.88V511.21H443.36V366.81L499.36 511.21H525.2L581.18 366.77ZM714.67 442.29H758.94V458.55C758.94 473.68 751.73 484.36 718.11 484.55C684.49 484.74 672.51 477.46 672.51 456.28V396.38C672.51 365.21 685.12 362.3 719.98 362.3C754.84 362.3 757.45 375.22 757.45 388.79H789.11C789.11 341.66 769.76 335.88 717.71 335.88C665.71 335.88 639.94 349.44 639.84 391.32V456C639.84 498.82 668.65 511.22 724.25 511.22C779.85 511.22 790 494.38 790 462V418.6H714.64L714.67 442.29ZM715.22 662L673 529.26H643.09L692.73 686H737.73L787.37 529.29H757.41L715.22 662ZM605.43 620.76C627.67 620.76 632.06 637.21 632.06 646.01V686.01H603V652.65C603 643.65 597 633.48 583.83 633.48H536V686H507.35V529.26H594.3C619.3 529.26 633.24 540.03 633.24 576.52C633.24 613.01 624.31 615.7 605.43 620.76ZM588.22 554.4H536.12V608.59H584.56C603.14 608.59 603.2 594.88 603.64 581.88C604.08 568.88 602.87 554.39 588.22 554.39V554.4Z" fill="white"/>
</g>
<defs>
<clipPath id="clip0_2_3012">
<rect width="1024" height="1024" fill="white"/>
</clipPath>
</defs>
</svg>
